X:1
T:Title
%%score { ( 1 4 ) | ( 2 3 ) }
L:1/8
M:4/4
K:A
V:1 treble nm="Grand Piano"
V:4 treble 
V:2 bass 
V:3 bass 
V:1
 z4 z2[Q:1/4=100] E2 | [CA]3 [CA] [Ec]2 [EA]2 | [EG]2 [DF]2 [CE]2 [EA]2 | G3 G B2 [EG]2 | %4
[M:3/4] [EA]2 [Ec]2 B2 |[M:1/4] E2 |[M:4/4] B3 B d2 B2 | A2 B2 c2 [Ec]2 | %8
 [B,EB]3 [Ec] [B,EB]2 [CEA]2 |[M:3/4] [B,EG]2 [A,^DF]2 E2 |[M:1/4] E2 |[M:4/4] d3 d cBcd | %12
 e2 c2 [CA]2 E-[EG] | F3 [Fd] [Fc]2 [FB]2 |[M:7/8] [EA]2 [DG]2 [CA]3 |] %15
V:2
 z4 z2 E,2 | [A,,A,]3 [A,,A,] [A,,A,]2 [C,A,]2 | [D,A,]2 [D,A,]2 [A,,A,]2 [C,A,]2 | %3
 [E,B,E]3 [E,B,E] [E,G,E]2 [D,B,]2 |[M:3/4] [C,A,]2 [A,,A,]2 [E,G,E]2 |[M:1/4] [E,G,]2 | %6
[M:4/4] [E,G,E]3 [E,G,E] [E,B,E]2 [E,G,D]2 | [F,A,C]2 [E,G,E]2 [A,E]2 [A,,A,]2 | %8
 G,,3 [A,,A,] G,,2 A,,2 |[M:3/4] B,,2 B,,2 [E,G,]2 |[M:1/4] [E,G,]2 | %11
[M:4/4] [E,B,E]3 [E,B,E] [E,E]-[E,G,E][E,E]-[E,B,E] | [A,CE]2 [A,E]2 [A,,A,]2 [C,A,]2 | %13
 [D,A,D]3 [B,,B,] [C,^A,]2 [D,B,]2 |[M:7/8] [E,C]2 [E,B,]2 [A,,A,]3 |] %15
V:3
 x8 | x8 | x8 | x8 |[M:3/4] x6 |[M:1/4] x2 |[M:4/4] x8 | x8 | x8 |[M:3/4] x6 |[M:1/4] x2 | %11
[M:4/4] z4 .A,2 .A,2 | x8 | x8 |[M:7/8] x7 |] %15
V:4
 x8 | x8 | x8 | x8 |[M:3/4] x6 |[M:1/4] x2 |[M:4/4] x8 | x8 | x8 |[M:3/4] x6 |[M:1/4] x2 | %11
[M:4/4] x8 | z4 z2 .A2 | x8 |[M:7/8] x7 |] %15

